src/icons/favorite-Darkmode.svg

<svg width="20" height="19" viewBox="0 0 20 19" fill="none" xmlns="http://www.w3.org/2000/svg">
<path d="M9.77758 3.11474L9.70686 3.04177C8.75416 2.05871 7.45521 1.50041 6.09392 1.50041C4.73262 1.50041 3.43368 2.05871 2.48097 3.04177C1.5293 4.02377 1 5.34914 1 6.72479C1 8.10043 1.5293 9.42581 2.48097 10.4078L3.2698 11.2218L9.05947 17.1959C9.24783 17.3903 9.50692 17.5 9.77758 17.5C10.0482 17.5 10.3073 17.3903 10.4957 17.1959L16.2854 11.2218L17.074 10.408C17.5456 9.92155 17.9182 9.3457 18.1718 8.7141C18.4254 8.08255 18.5556 7.40666 18.5556 6.72479C18.5556 6.04291 18.4254 5.36703 18.1718 4.73547C17.9182 4.10388 17.5456 3.52803 17.074 3.0416C16.6026 2.55505 16.0413 2.16734 15.4211 1.90219C14.8008 1.63696 14.1347 1.5 13.4612 1.5C12.7878 1.5 12.1217 1.63696 11.5014 1.90219C10.8811 2.1674 10.3196 2.55522 9.84813 3.04194L9.77758 3.11474Z" stroke="#D2D2D2" stroke-width="2" stroke-linejoin="round"/>
</svg>

<svg xmlns="http://www.w3.org/2000/svg" width="20" height="19" fill="none"><path stroke="#D2D2D2" stroke-linejoin="round" stroke-width="2" d="m9.778 3.115-.071-.073A5.03 5.03 0 0 0 6.094 1.5 5.03 5.03 0 0 0 2.48 3.042 5.294 5.294 0 0 0 1 6.725c0 1.375.53 2.7 1.481 3.683l.789.814 5.79 5.974a1 1 0 0 0 1.436 0l5.79-5.974.788-.814a5.235 5.235 0 0 0 1.098-1.694 5.34 5.34 0 0 0 0-3.979 5.235 5.235 0 0 0-1.098-1.693 5.087 5.087 0 0 0-1.653-1.14 4.983 4.983 0 0 0-3.92 0 5.087 5.087 0 0 0-1.653 1.14l-.07.073Z"/></svg>
